; G-Code generated by Simplify3D(R) Version 3.0.1
; May 9, 2016 at 4:39:00 PM
; Settings Summary
;   processName,Process1
;   applyToModels,oozetest
;   profileName,Polar 3D Printer (modified)
;   profileVersion,2015-09-04 08:00:00
;   baseProfile,
;   printMaterial,PLA
;   printQuality,Medium
;   printExtruders,
;   extruderName,Primary Extruder
;   extruderToolheadNumber,0
;   extruderDiameter,0.4
;   extruderAutoWidth,1
;   extruderWidth,0.48
;   extrusionMultiplier,0.9
;   extruderUseRetract,1
;   extruderRetractionDistance,1
;   extruderExtraRestartDistance,0.1
;   extruderRetractionZLift,0.5
;   extruderRetractionSpeed,420
;   extruderUseCoasting,0
;   extruderCoastingDistance,0.2
;   extruderUseWipe,0
;   extruderWipeDistance,5
;   primaryExtruder,0
;   layerHeight,0.2
;   topSolidLayers,6
;   bottomSolidLayers,6
;   perimeterOutlines,2
;   printPerimetersInsideOut,1
;   startPointOption,1
;   startPointOriginX,0
;   startPointOriginY,0
;   startPointOriginZ,300
;   sequentialIslands,0
;   spiralVaseMode,0
;   firstLayerHeightPercentage,150
;   firstLayerWidthPercentage,100
;   firstLayerUnderspeed,0.75
;   useRaft,0
;   raftExtruder,0
;   raftLayers,1
;   raftOffset,0
;   raftSeparationDistance,0.25
;   raftInfill,85
;   disableRaftBaseLayers,0
;   useSkirt,0
;   skirtExtruder,0
;   skirtLayers,2
;   skirtOutlines,2
;   skirtOffset,4
;   usePrimePillar,0
;   primePillarExtruder,999
;   primePillarWidth,12
;   primePillarLocation,7
;   primePillarSpeedMultiplier,1
;   useOozeShield,0
;   oozeShieldExtruder,999
;   oozeShieldOffset,2
;   oozeShieldOutlines,1
;   oozeShieldSidewallShape,1
;   oozeShieldSidewallAngle,30
;   oozeShieldSpeedMultiplier,1
;   infillExtruder,0
;   internalInfillPattern,Rectilinear
;   externalInfillPattern,Rectilinear
;   infillPercentage,15
;   outlineOverlapPercentage,15
;   infillExtrusionWidthPercentage,100
;   minInfillLength,1
;   infillLayerInterval,1
;   infillAngles,45,-45
;   overlapInfillAngles,0
;   generateSupport,0
;   supportExtruder,0
;   supportInfillPercentage,30
;   supportExtraInflation,0
;   denseSupportLayers,0
;   denseSupportInfillPercentage,70
;   supportLayerInterval,1
;   supportHorizontalPartOffset,0.3
;   supportUpperSeparationLayers,1
;   supportLowerSeparationLayers,1
;   supportType,0
;   supportGridSpacing,4
;   maxOverhangAngle,45
;   supportAngles,0
;   temperatureName,Primary Extruder Temperature
;   temperatureNumber,0
;   temperatureSetpointCount,3
;   temperatureSetpointLayers,1,2,5
;   temperatureSetpointTemperatures,200,185,180
;   temperatureStabilizeAtStartup,0
;   temperatureHeatedBed,0
;   temperatureRelayBetweenLayers,0
;   temperatureRelayBetweenLoops,0
;   fanLayers,1
;   fanSpeeds,100
;   blipFanToFullPower,1
;   adjustSpeedForCooling,1
;   minSpeedLayerTime,15
;   minCoolingSpeedSlowdown,15
;   increaseFanForCooling,0
;   minFanLayerTime,45
;   maxCoolingFanSpeed,100
;   increaseFanForBridging,0
;   bridgingFanSpeed,100
;   use5D,1
;   relativeEdistances,0
;   allowEaxisZeroing,1
;   independentExtruderAxes,0
;   includeM10123,0
;   stickySupport,1
;   applyToolheadOffsets,0
;   gcodeXoffset,0
;   gcodeYoffset,0
;   gcodeZoffset,0
;   overrideMachineDefinition,1
;   machineTypeOverride,1
;   strokeXoverride,143.6
;   strokeYoverride,143.6
;   strokeZoverride,150
;   originOffsetXoverride,71.8
;   originOffsetYoverride,71.8
;   originOffsetZoverride,0
;   homeXdirOverride,0
;   homeYdirOverride,0
;   homeZdirOverride,-1
;   flipXoverride,1
;   flipYoverride,-1
;   flipZoverride,1
;   toolheadOffsets,0,0|0,0|0,0|0,0|0,0|0,0
;   overrideFirmwareConfiguration,1
;   firmwareTypeOverride,RepRap (Marlin/Repetier/Sprinter)
;   GPXconfigOverride,r2
;   baudRateOverride,115200
;   overridePrinterModels,1
;   printerModelsOverride
;   startingGcode,G92 Y0,G28 ; first home,G28 ; second home,G0 Z.3 X95 F2000 ; move extruder to edge of build plate,M107 ; fan off,G90 ; relative ,M82 ; mm units,M104 T0 S200 ; set extruder temp,G92 E-25 ; set inital position of extruder,M109 T0 S200 ; wait for temp,G0 E0 ; repopulate extruder,M106 S255 ; turn on fan,G0 Z.3 Y15 E5 F300 ; repopulate extruder and extrude test pile,G0 Y30 Z.3 E10 F300 ; move extruder back to build plate,G92 E0 ; reset extruder,M106 S255
;   layerChangeGcode,
;   retractionGcode,
;   toolChangeGcode,
;   endingGcode,G91 ; Relative positioning,T0,G1 E-25 F1500 ; remove filament from melt chamber,G1 Z10 F300,M104 T0 S0,G90 ; Absolute positioning,G92 Y0 Z0 E0 ; Reset position,G28 X ; home the x axis,G0 Y180 X98 F2000 ; move build plate to present part,M84 ; Turn steppers off,M107 ; Turn off fan,G92 Y0
;   createX3G,0
;   celebration,0
;   celebrationSong,Random Song
;   createMB5G,0
;   postProcessing,
;   defaultSpeed,2000
;   outlineUnderspeed,0.75
;   solidInfillUnderspeed,0.8
;   supportUnderspeed,1
;   rapidXYspeed,2000
;   rapidZspeed,300
;   minBridgingArea,50
;   bridgingExtraInflation,0
;   bridgingExtrusionMultiplier,1
;   bridgingSpeedMultiplier,1.2
;   filamentDiameter,1.75
;   filamentPricePerKg,40
;   filamentDensity,1.25
;   useMinPrintHeight,0
;   minPrintHeight,0
;   useMaxPrintHeight,0
;   maxPrintHeight,0
;   useDiaphragm,0
;   diaphragmLayerInterval,20
;   robustSlicing,1
;   mergeAllIntoSolid,0
;   onlyRetractWhenCrossingOutline,1
;   retractBetweenLayers,1
;   useRetractionMinTravel,0
;   retractionMinTravel,3
;   retractWhileWiping,0
;   onlyWipeOutlines,1
;   avoidCrossingOutline,0
;   maxMovementDetourFactor,3
;   toolChangeRetractionDistance,12
;   toolChangeExtraRestartDistance,-0.5
;   toolChangeRetractionSpeed,600
;   allowThinWallGapFill,1
;   thinWallAllowedOverlapPercentage,10
;   horizontalSizeCompensation,0
G90
M82
;M106 S255
;M104 S200 T0
G92 Y0
G28 ; first home
G28 ; second home
G0 Z.3 X95 F2000 ; move extruder to edge of build plate
M107 ; fan off
G90 ; relative 
M82 ; mm units
;M104 T0 S200 ; set extruder temp
G92 E-25 ; set inital position of extruder
;M109 T0 S200 ; wait for temp
G0 E0 ; repopulate extruder
;M106 S255 ; turn on fan
G0 Z.3 Y15 E5 F300 ; repopulate extruder and extrude test pile
G0 Y30 Z.3 E10 F300 ; move extruder back to build plate
G92 E0 ; reset extruder
;M106 S255
G92 E0
G1 E-1.0000 F420
G1 Z0.800 F300
; layer 1, Z = 0.3
T0
; tool H0.300 W0.480
; inner perimeter
G1 X-9.553 Y-10.609 F2000
G1 Z0.300 F300
G1 E0.1000 F126
G92 E0
G1 X-7.138 Y-12.363 E0.1608 F1312
G1 X-4.412 Y-13.577 E0.3216
G1 X-1.492 Y-14.198 E0.4824
G1 X-0.490 Y-14.198 E0.5364
G1 X-0.393 Y-14.235 E0.5420
G1 X-0.089 Y-14.198 E0.5585
G1 X1.492 Y-14.198 E0.6437
G1 X4.412 Y-13.577 E0.8045
G1 X7.138 Y-12.363 E0.9653
G1 X9.553 Y-10.609 E1.1261
G1 X11.550 Y-8.391 E1.2870
G1 X12.051 Y-7.523 E1.3410
G1 X12.131 Y-7.457 E1.3466
G1 X12.251 Y-7.176 E1.3630
G1 X13.042 Y-5.807 E1.4483
G1 X13.964 Y-2.968 E1.6091
G1 X14.276 Y0.000 E1.7699
G1 X13.964 Y2.968 E1.9307
G1 X13.042 Y5.807 E2.0915
G1 X12.541 Y6.675 E2.1455
G1 X12.524 Y6.777 E2.1511
G1 X12.340 Y7.022 E2.1676
G1 X11.550 Y8.391 E2.2528
G1 X9.553 Y10.609 E2.4136
G1 X7.138 Y12.363 E2.5744
G1 X4.412 Y13.577 E2.7352
G1 X1.492 Y14.198 E2.8960
G1 X0.490 Y14.198 E2.9500
G1 X0.393 Y14.235 E2.9556
G1 X0.089 Y14.198 E2.9721
G1 X-1.492 Y14.198 E3.0573
G1 X-4.412 Y13.577 E3.2181
G1 X-7.138 Y12.363 E3.3789
G1 X-9.553 Y10.609 E3.5397
G1 X-11.550 Y8.391 E3.7005
G1 X-12.051 Y7.523 E3.7546
G1 X-12.131 Y7.457 E3.7602
G1 X-12.251 Y7.176 E3.7766
G1 X-13.042 Y5.807 E3.8618
G1 X-13.964 Y2.968 E4.0227
G1 X-14.276 Y0.000 E4.1835
G1 X-13.964 Y-2.968 E4.3443
G1 X-13.042 Y-5.807 E4.5051
G1 X-12.541 Y-6.675 E4.5591
G1 X-12.524 Y-6.777 E4.5647
G1 X-12.340 Y-7.022 E4.5812
G1 X-11.550 Y-8.391 E4.6664
G1 X-9.553 Y-10.609 E4.8272
; outer perimeter
G1 X-9.875 Y-10.968 F2000
G92 E0
G1 X-7.379 Y-12.781 E0.1662 F1125
G1 X-4.561 Y-14.036 E0.3325
G1 X-1.543 Y-14.678 E0.4987
G1 X-0.578 Y-14.678 E0.5507
G1 X-0.452 Y-14.725 E0.5580
G1 X-0.060 Y-14.678 E0.5792
G1 X1.543 Y-14.678 E0.6656
G1 X4.561 Y-14.036 E0.8319
G1 X7.379 Y-12.781 E0.9981
G1 X9.875 Y-10.968 E1.1643
G1 X11.940 Y-8.675 E1.3306
G1 X12.422 Y-7.839 E1.3826
G1 X12.526 Y-7.754 E1.3898
G1 X12.681 Y-7.391 E1.4111
G1 X13.483 Y-6.003 E1.4975
G1 X14.436 Y-3.069 E1.6637
G1 X14.759 Y0.000 E1.8300
G1 X14.436 Y3.069 E1.9962
G1 X13.483 Y6.003 E2.1624
G1 X13.000 Y6.838 E2.2144
G1 X12.979 Y6.971 E2.2217
G1 X12.741 Y7.287 E2.2430
G1 X11.940 Y8.675 E2.3293
G1 X9.875 Y10.968 E2.4956
G1 X7.379 Y12.781 E2.6618
G1 X4.561 Y14.036 E2.8281
G1 X1.543 Y14.678 E2.9943
G1 X0.578 Y14.678 E3.0463
G1 X0.452 Y14.725 E3.0535
G1 X0.060 Y14.678 E3.0748
G1 X-1.543 Y14.678 E3.1612
G1 X-4.561 Y14.036 E3.3274
G1 X-7.379 Y12.781 E3.4937
G1 X-9.875 Y10.968 E3.6599
G1 X-11.940 Y8.675 E3.8262
G1 X-12.422 Y7.839 E3.8781
G1 X-12.526 Y7.754 E3.8854
G1 X-12.681 Y7.391 E3.9067
G1 X-13.483 Y6.003 E3.9930
G1 X-14.436 Y3.069 E4.1593
G1 X-14.759 Y0.000 E4.3255
G1 X-14.436 Y-3.069 E4.4918
G1 X-13.483 Y-6.003 E4.6580
G1 X-13.000 Y-6.838 E4.7100
G1 X-12.979 Y-6.971 E4.7172
G1 X-12.741 Y-7.287 E4.7385
G1 X-11.940 Y-8.675 E4.8249
G1 X-9.875 Y-10.968 E4.9911
; solid layer
G1 X-11.710 Y-7.297 F2000
G92 E0
G1 X-7.174 Y-11.833 E0.3457 F1200
G1 X-6.933 Y-12.008 E0.3617
G1 X-5.828 Y-12.500 E0.4269
G1 X-12.638 Y-5.690 E0.9458
G1 X-12.667 Y-5.640 E0.9489
G1 X-12.983 Y-4.666 E1.0041
G1 X-4.605 Y-13.045 E1.6426
G1 X-4.285 Y-13.187 E1.6614
G1 X-3.648 Y-13.322 E1.6965
G1 X-13.310 Y-3.660 E2.4327
G1 X-13.563 Y-2.883 E2.4768
G1 X-13.581 Y-2.711 E2.4861
G1 X-2.786 Y-13.506 E3.3087
G1 X-1.924 Y-13.689 E3.3562
G1 X-13.661 Y-1.952 E4.2505
G1 X-13.740 Y-1.194 E4.2916
G1 X-1.144 Y-13.790 E5.2514
G1 X-0.465 Y-13.790 E5.2880
G1 X-13.820 Y-0.435 E6.3056
G1 X-13.866 Y0.000 E6.3292
G1 X-13.838 Y0.262 E6.3434
G1 X0.213 Y-13.790 E7.4141
G1 X0.892 Y-13.790 E7.4507
G1 X-13.774 Y0.876 E8.5682
G1 X-13.709 Y1.490 E8.6015
G1 X1.550 Y-13.768 E9.7642
G1 X2.110 Y-13.649 E9.7951
G1 X-13.645 Y2.105 E10.9955
G1 X-13.580 Y2.719 E11.0288
G1 X2.669 Y-13.530 E12.2670
G1 X3.229 Y-13.411 E12.2978
G1 X-13.441 Y3.258 E13.5681
G1 X-13.274 Y3.771 E13.5971
G1 X3.789 Y-13.292 E14.8973
G1 X4.285 Y-13.187 E14.9246
G1 X4.339 Y-13.163 E14.9278
G1 X-13.108 Y4.283 E16.2572
G1 X-12.941 Y4.796 E16.2862
G1 X4.808 Y-12.954 E17.6387
G1 X5.278 Y-12.745 E17.6665
G1 X-12.775 Y5.308 E19.0421
G1 X-12.667 Y5.640 E19.0609
G1 X-12.580 Y5.791 E19.0703
G1 X5.748 Y-12.536 E20.4668
G1 X6.217 Y-12.327 E20.4945
G1 X-12.331 Y6.222 E21.9079
G1 X-12.083 Y6.652 E21.9347
G1 X6.687 Y-12.118 E23.3649
G1 X6.933 Y-12.008 E23.3794
G1 X7.120 Y-11.872 E23.3919
G1 X-11.844 Y7.092 E24.8369
G1 X-11.795 Y7.205 E24.8436
G1 X-11.735 Y7.255 E24.8478
G1 X-11.586 Y7.513 E24.8639
G1 X7.513 Y-11.586 E26.3192
G1 X7.907 Y-11.301 E26.3454
G1 X-11.337 Y7.943 E27.8118
G1 X-11.218 Y8.150 E27.8246
G1 X-11.051 Y8.335 E27.8381
G1 X8.300 Y-11.015 E29.3126
G1 X8.693 Y-10.729 E29.3388
G1 X-10.729 Y8.693 E30.8187
G1 X-10.407 Y9.050 E30.8446
G1 X9.086 Y-10.444 E32.3300
G1 X9.278 Y-10.304 E32.3428
G1 X9.443 Y-10.121 E32.3561
G1 X-10.086 Y9.407 E33.8441
G1 X-9.764 Y9.764 E33.8700
G1 X9.764 Y-9.764 E35.3581
G1 X10.086 Y-9.407 E35.3840
G1 X-9.443 Y10.121 E36.8721
G1 X-9.278 Y10.304 E36.8853
G1 X-9.086 Y10.444 E36.8981
G1 X10.408 Y-9.050 E38.3835
G1 X10.729 Y-8.693 E38.4094
G1 X-8.693 Y10.729 E39.8894
G1 X-8.300 Y11.015 E39.9156
G1 X11.051 Y-8.335 E41.3901
G1 X11.218 Y-8.150 E41.4035
G1 X11.337 Y-7.943 E41.4164
G1 X-7.907 Y11.301 E42.8828
G1 X-7.513 Y11.586 E42.9089
G1 X11.586 Y-7.513 E44.3643
G1 X11.735 Y-7.255 E44.3804
G1 X11.795 Y-7.205 E44.3846
G1 X11.844 Y-7.092 E44.3912
G1 X-7.120 Y11.872 E45.8362
G1 X-6.933 Y12.008 E45.8487
G1 X-6.687 Y12.118 E45.8632
G1 X12.083 Y-6.652 E47.2935
G1 X12.331 Y-6.222 E47.3202
G1 X-6.217 Y12.327 E48.7336
G1 X-5.748 Y12.536 E48.7613
G1 X12.580 Y-5.791 E50.1578
G1 X12.667 Y-5.640 E50.1673
G1 X12.775 Y-5.308 E50.1861
G1 X-5.278 Y12.745 E51.5617
G1 X-4.808 Y12.954 E51.5894
G1 X12.941 Y-4.795 E52.9419
G1 X13.108 Y-4.283 E52.9709
G1 X-4.338 Y13.163 E54.3003
G1 X-4.285 Y13.187 E54.3035
G1 X-3.789 Y13.293 E54.3308
G1 X13.274 Y-3.771 E55.6310
G1 X13.441 Y-3.258 E55.6601
G1 X-3.229 Y13.412 E56.9303
G1 X-2.669 Y13.531 E56.9611
G1 X13.580 Y-2.719 E58.1993
G1 X13.645 Y-2.105 E58.2326
G1 X-2.109 Y13.650 E59.4331
G1 X-1.550 Y13.769 E59.4639
G1 X13.709 Y-1.490 E60.6266
G1 X13.774 Y-0.876 E60.6599
G1 X-0.892 Y13.790 E61.7774
G1 X-0.213 Y13.790 E61.8140
G1 X13.838 Y-0.262 E62.8848
G1 X13.866 Y0.000 E62.8989
G1 X13.820 Y0.435 E62.9225
G1 X0.465 Y13.790 E63.9401
G1 X1.144 Y13.790 E63.9767
G1 X13.740 Y1.194 E64.9365
G1 X13.661 Y1.952 E64.9776
G1 X1.924 Y13.689 E65.8719
G1 X2.786 Y13.506 E65.9194
G1 X13.581 Y2.711 E66.7420
G1 X13.563 Y2.883 E66.7513
G1 X13.310 Y3.660 E66.7954
G1 X3.648 Y13.322 E67.5316
G1 X4.285 Y13.187 E67.5667
G1 X4.605 Y13.045 E67.5855
G1 X12.983 Y4.666 E68.2240
G1 X12.667 Y5.640 E68.2791
G1 X12.638 Y5.691 E68.2823
G1 X5.828 Y12.500 E68.8012
G1 X6.933 Y12.008 E68.8663
G1 X7.174 Y11.833 E68.8824
G1 X11.710 Y7.297 E69.2281
G92 E0
G1 E-1.0000 F420
G1 Z1.000 F300
; layer 2, Z = 0.5
M104 S185 T0
; tool H0.200 W0.480
; inner perimeter
G1 X12.251 Y-7.176 F2000
G1 Z0.500 F300
G1 E0.1000 F420
G92 E0
G1 X13.042 Y-5.807 E0.0568 F1750
G1 X13.964 Y-2.968 E0.1640
G1 X14.276 Y0.000 E0.2712
G1 X13.964 Y2.968 E0.3784
G1 X13.042 Y5.807 E0.4856
G1 X12.541 Y6.675 E0.5216
G1 X12.524 Y6.777 E0.5254
G1 X12.340 Y7.022 E0.5364
G1 X11.550 Y8.391 E0.5932
G1 X9.553 Y10.609 E0.7004
G1 X7.138 Y12.363 E0.8076
G1 X4.412 Y13.577 E0.9148
G1 X1.492 Y14.198 E1.0220
G1 X0.490 Y14.198 E1.0580
G1 X0.393 Y14.235 E1.0617
G1 X0.089 Y14.198 E1.0727
G1 X-1.492 Y14.198 E1.1295
G1 X-4.412 Y13.577 E1.2367
G1 X-7.138 Y12.363 E1.3439
G1 X-9.553 Y10.609 E1.4511
G1 X-11.550 Y8.391 E1.5583
G1 X-12.051 Y7.523 E1.5943
G1 X-12.131 Y7.457 E1.5981
G1 X-12.251 Y7.176 E1.6091
G1 X-13.042 Y5.807 E1.6659
G1 X-13.964 Y2.968 E1.7731
G1 X-14.276 Y0.000 E1.8803
G1 X-13.964 Y-2.968 E1.9875
G1 X-13.042 Y-5.807 E2.0947
G1 X-12.541 Y-6.675 E2.1307
G1 X-12.524 Y-6.777 E2.1344
G1 X-12.340 Y-7.022 E2.1454
G1 X-11.550 Y-8.391 E2.2022
G1 X-9.553 Y-10.609 E2.3094
G1 X-7.138 Y-12.363 E2.4166
G1 X-4.412 Y-13.577 E2.5238
G1 X-1.492 Y-14.198 E2.6310
G1 X-0.490 Y-14.198 E2.6670
G1 X-0.393 Y-14.235 E2.6708
G1 X-0.089 Y-14.198 E2.6818
G1 X1.492 Y-14.198 E2.7386
G1 X4.412 Y-13.577 E2.8458
G1 X7.138 Y-12.363 E2.9530
G1 X9.553 Y-10.609 E3.0602
G1 X11.550 Y-8.391 E3.1674
G1 X12.051 Y-7.523 E3.2034
G1 X12.131 Y-7.457 E3.2071
G1 X12.251 Y-7.176 E3.2181
; outer perimeter
G1 X12.681 Y-7.391 F2000
G92 E0
G1 X13.483 Y-6.003 E0.0576 F1500
G1 X14.436 Y-3.069 E0.1684
G1 X14.759 Y0.000 E0.2792
G1 X14.436 Y3.069 E0.3901
G1 X13.483 Y6.003 E0.5009
G1 X13.000 Y6.838 E0.5356
G1 X12.979 Y6.971 E0.5404
G1 X12.741 Y7.287 E0.5546
G1 X11.940 Y8.675 E0.6121
G1 X9.875 Y10.968 E0.7230
G1 X7.379 Y12.781 E0.8338
G1 X4.561 Y14.036 E0.9446
G1 X1.543 Y14.678 E1.0555
G1 X0.578 Y14.678 E1.0901
G1 X0.452 Y14.725 E1.0949
G1 X0.060 Y14.678 E1.1091
G1 X-1.543 Y14.678 E1.1667
G1 X-4.561 Y14.036 E1.2775
G1 X-7.379 Y12.781 E1.3884
G1 X-9.875 Y10.968 E1.4992
G1 X-11.940 Y8.675 E1.6100
G1 X-12.422 Y7.839 E1.6447
G1 X-12.526 Y7.754 E1.6495
G1 X-12.681 Y7.391 E1.6637
G1 X-13.483 Y6.003 E1.7213
G1 X-14.436 Y3.069 E1.8321
G1 X-14.759 Y0.000 E1.9429
G1 X-14.436 Y-3.069 E2.0538
G1 X-13.483 Y-6.003 E2.1646
G1 X-13.000 Y-6.838 E2.1993
G1 X-12.979 Y-6.971 E2.2041
G1 X-12.741 Y-7.287 E2.2183
G1 X-11.940 Y-8.675 E2.2759
G1 X-9.875 Y-10.968 E2.3867
G1 X-7.379 Y-12.781 E2.4975
G1 X-4.561 Y-14.036 E2.6083
G1 X-1.543 Y-14.678 E2.7192
G1 X-0.578 Y-14.678 E2.7538
G1 X-0.452 Y-14.725 E2.7587
G1 X-0.060 Y-14.678 E2.7728
G1 X1.543 Y-14.678 E2.8304
G1 X4.561 Y-14.036 E2.9413
G1 X7.379 Y-12.781 E3.0521
G1 X9.875 Y-10.968 E3.1629
G1 X11.940 Y-8.675 E3.2737
G1 X12.422 Y-7.839 E3.3084
G1 X12.526 Y-7.754 E3.3132
G1 X12.681 Y-7.391 E3.3274
; solid layer
G1 X7.174 Y-11.833 F2000
G92 E0
G1 X11.710 Y-7.297 E0.2304 F1600
G1 X11.735 Y-7.255 E0.2322
G1 X11.795 Y-7.205 E0.2350
G1 X11.885 Y-6.993 E0.2432
G1 X12.638 Y-5.690 E0.2973
G1 X5.828 Y-12.500 E0.6432
G1 X4.605 Y-13.045 E0.6913
G1 X12.983 Y-4.666 E1.1170
G1 X13.310 Y-3.660 E1.1549
G1 X3.648 Y-13.322 E1.6458
